Images/email-icon.svg

<svg width="38" height="36" viewBox="0 0 38 36" fill="none" xmlns="http://www.w3.org/2000/svg">
<path d="M17.8607 7.36697C20.6854 7.36697 23.3471 8.61918 25.2977 10.5767V10.5825C25.2977 9.64247 25.9301 8.93137 26.8043 8.93137H27.0263C28.4057 8.93137 28.682 10.2322 28.682 10.6426L28.6878 25.2518C28.5918 26.2092 29.6764 26.7041 30.2788 26.089C32.6202 23.6805 35.4264 13.6951 28.8208 7.91387C22.6603 2.51765 14.3919 3.40912 9.99586 6.4385C5.32346 9.66675 2.33686 16.7973 5.23789 23.499C8.40602 30.8053 17.4629 32.9848 22.8534 30.8111C25.5821 29.7092 26.8401 33.393 24.0038 34.599C19.7292 36.4224 7.81633 36.2362 2.25246 26.6012C-1.50651 20.0927 -1.30764 8.64347 8.66617 2.7119C16.2893 -1.82869 26.3475 -0.57069 32.4109 5.75978C38.7472 12.3839 38.3806 24.7778 32.1947 29.5959C29.3931 31.787 25.2329 29.656 25.263 26.4636L25.2318 25.423C23.2812 27.3551 20.6854 28.4882 17.8607 28.4882C12.2725 28.4882 7.35267 23.5672 7.35267 17.9848C7.35267 12.3423 12.2725 7.36928 17.8607 7.36928V7.36697ZM24.8895 17.5813C24.6779 13.4916 21.6428 11.0288 17.9751 11.0288H17.8364C13.6091 11.0288 11.2608 14.3588 11.2608 18.134C11.2608 22.367 14.0971 25.0402 17.819 25.0402C21.9735 25.0402 24.701 22.0005 24.8999 18.4045L24.8895 17.5813Z" fill="black"/>
</svg>

<svg xmlns="http://www.w3.org/2000/svg" width="38" height="36" fill="none" xmlns:v="https://vecta.io/nano"><path d="M17.861 7.367c2.825 0 5.486 1.252 7.437 3.21v.006c0-.94.632-1.651 1.507-1.651h.222c1.379 0 1.656 1.301 1.656 1.711l.006 14.609c-.096.957.989 1.452 1.591.837 2.341-2.408 5.148-12.394-1.458-18.175-6.16-5.396-14.429-4.505-18.825-1.475-4.672 3.228-7.659 10.359-4.758 17.06 3.168 7.306 12.225 9.486 17.616 7.312 2.729-1.102 3.987 2.582 1.15 3.788-4.275 1.823-16.187 1.637-21.751-7.998-3.759-6.508-3.56-17.958 6.414-23.889C16.289-1.829 26.348-.571 32.411 5.76c6.336 6.624 5.97 19.018-.216 23.836-2.802 2.191-6.962.06-6.932-3.132l-.031-1.041c-1.951 1.932-4.546 3.065-7.371 3.065-5.588 0-10.508-4.921-10.508-10.503 0-5.642 4.92-10.616 10.508-10.616v-.002zm7.029 10.214c-.212-4.09-3.247-6.552-6.914-6.552h-.139c-4.227 0-6.576 3.33-6.576 7.105 0 4.233 2.836 6.906 6.558 6.906 4.155 0 6.882-3.04 7.081-6.636l-.01-.823z" fill="#000"/></svg>
